X: 341
T: Mr James Jenkins's Strathspey
C: by J Pringle
B: John Pringle "Collection of Reels Strathspeys & Jigs", 1801 p.34#1
Z: 2011 John Chambers <jc:trillian.mit.edu>
R: strathspey
M: C
L: 1/8
K: G
V: 1
d/c/ |\
B>GE>C B,D G,d/c/ | B>GD>B, A,A Ad/c/ |\
B>GD>C B,>CDG | F>GAF DG G :|
B |\
G>Bdg (f/g/).f/.e/ ~d>c | G>Bdg faa2 |\
G>Bdg (f/g/).f/.e/ d>B | c>BA>G F<A~AB |
G>Bdg (f/g/).f/.e/ ~d>B | G>Bdg f<a~a>f |\
g<b~d>B c<a~A>B | c>BAG FAA |]
V: 2 clef=bass middle=d
z |\
[g2G2][g2G2] [g2G2][g2G2] | [g2G2][g2G2] [d2D2][d2D2] |\
[g2G2][g2G2] [g2G2][g2G2] | [d2D2][d2D2] [g2G2][gG] :|
z |\
[g2G2][g2G2] [a2A2][g2G2] | [g2G2][g2G2] d2d2 |\
[g2G2][g2G2] [a2A2][g2G2] | [c'2e2][b2d2] [a2d2][a2d2] |
[g2G2][g2G2] [a2A2][g2G2] | [g2G2][g2G2] [d2D2][d'2d2] |\
b3^g a2d2 | [c'2d2][b2d2] [a2d2][ad] |]

%%sep 2 1 500

